X:485
T:The Green Fields of Rossbeigh
M:4/4
L:1/8
K:EDor
dc|BE E2 BAFB|ABde fdec|BE E2 BAFA|BFAF E2 FA|
B3 d BAFB|ABde fdec|BE E2 BAFA|BFAF E2 :|
FA|(3Bcd ef gfge|dB B2 dBAd|Bdef gfge|dBAF E2 ef|
g2 ga gfed|f2 fg fedB|ABde fdec|dBAF E2 :|
